X:392
T: Es saáen mal drei Weiber (4-92), S. 120
N: P0662
O: Lothringen
S: PINCK, Louis: Verklingende Weisen Bd 4, Kassel 1939]
R: Trink-, Zechlied]
M: 2/4
L: 1/8
K: G
D | GGGA | B2Bc | ddde | d3
D | GGGAAA | d3D | AGFE | D3
D | GGA2 | Bedc | B2ec | B2AA | G4

